src/assets/logotext.svg

<?xml version="1.0" encoding="UTF-8" standalone="no"?>
<svg
   width="235"
   height="26"
   viewBox="0 0 235 26"
   fill="none"
   version="1.1"
   id="svg13"
   sodipodi:docname="logotext.svg"
   inkscape:version="1.2.2 (732a01da63, 2022-12-09)"
   xmlns:inkscape="http://www.inkscape.org/namespaces/inkscape"
   xmlns:sodipodi="http://sodipodi.sourceforge.net/DTD/sodipodi-0.dtd"
   xmlns="http://www.w3.org/2000/svg"
   xmlns:svg="http://www.w3.org/2000/svg">
  <sodipodi:namedview
     id="namedview15"
     pagecolor="#ffffff"
     bordercolor="#000000"
     borderopacity="0.25"
     inkscape:showpageshadow="2"
     inkscape:pageopacity="0.0"
     inkscape:pagecheckerboard="0"
     inkscape:deskcolor="#d1d1d1"
     showgrid="false"
     inkscape:zoom="7.6680851"
     inkscape:cx="117.56521"
     inkscape:cy="13.106271"
     inkscape:window-width="2880"
     inkscape:window-height="1676"
     inkscape:window-x="-12"
     inkscape:window-y="-12"
     inkscape:window-maximized="1"
     inkscape:current-layer="svg13" />
  <g
     clip-path="url(#clip0_67_2)"
     id="g6"
     transform="translate(-1.0432852,0.65205329)">
    <path
       d="M 2.69,13.95 -0.1,11.34 2.69,8.76 V 2.31 L 6.92,-0.270002 H 9.89 L 4.37,3.15 v 5.91 l -2.52,2.28 2.52,2.25 v 7.98 l 5.52,3.42 H 6.92 L 2.69,22.41 Z M 8.98438,3.75 h 3.42002 l 6.18,5.82 v 4.53 l -5.82,-5.49 V 21 H 8.98438 Z m 20.67002,0 h -3.39 l -6.21,5.82 v 4.53 l 5.82,-5.49 V 21 h 3.78 z m 6.3201,18.66 -4.29,2.58 h -2.94 l 5.49,-3.42 v -7.98 l 2.55,-2.25 -2.55,-2.28 V 3.15 l -5.49,-3.420002 h 2.94 L 35.9745,2.31 v 6.45 l 2.73,2.58 -2.73,2.61 z"
       fill="#00adb5"
       id="path2" />
    <path
       d="m 49.4414,5.78125 h 2.1875 L 55.7402,16.748 59.8418,5.78125 h 2.1875 L 56.5996,20 h -1.7383 z m -0.9961,0 h 2.0801 l 0.3613,9.49215 V 20 h -2.4414 z m 12.5,0 h 2.0899 V 20 H 60.584 v -4.7266 z m 8.2172,0 V 20 H 66.7113 V 5.78125 Z m 12.0453,9.58985 h 2.4414 c -0.0781,0.931 -0.3385,1.7611 -0.7812,2.4902 -0.4427,0.7227 -1.0645,1.2923 -1.8653,1.709 -0.8007,0.4167 -1.7741,0.625 -2.9199,0.625 -0.8789,0 -1.6699,-0.1562 -2.373,-0.4687 -0.7032,-0.319 -1.3054,-0.7683 -1.8067,-1.3477 -0.5013,-0.5859 -0.8854,-1.2923 -1.1523,-2.1191 -0.2604,-0.8269 -0.3906,-1.7513 -0.3906,-2.7735 v -1.1816 c 0,-1.0221 0.1334,-1.9466 0.4003,-2.77345 0.2735,-0.82682 0.6641,-1.5332 1.1719,-2.11914 0.5078,-0.59245 1.1166,-1.04492 1.8262,-1.35742 0.7161,-0.3125 1.5202,-0.46875 2.4121,-0.46875 1.1328,0 2.0898,0.20833 2.8711,0.625 0.7812,0.41666 1.3867,0.99284 1.8164,1.72851 0.4362,0.73568 0.7031,1.57878 0.8008,2.52935 H 81.2176 C 81.1525,9.85677 81.0092,9.33268 80.7879,8.89648 80.573,8.46029 80.254,8.12826 79.8309,7.90039 79.4077,7.66602 78.8543,7.54883 78.1707,7.54883 c -0.5599,0 -1.0482,0.10416 -1.4648,0.3125 -0.4167,0.20833 -0.765,0.51432 -1.045,0.91797 -0.2799,0.40364 -0.4915,0.90169 -0.6347,1.4941 -0.1367,0.586 -0.2051,1.2565 -0.2051,2.0118 v 1.2011 c 0,0.7162 0.0618,1.3672 0.1855,1.9532 0.1302,0.5794 0.3256,1.0774 0.586,1.4941 0.2669,0.4167 0.6054,0.7389 1.0156,0.9668 0.4102,0.2279 0.9017,0.3418 1.4746,0.3418 0.6966,0 1.2598,-0.1107 1.6895,-0.332 0.4362,-0.2214 0.7649,-0.5437 0.9863,-0.9668 0.2279,-0.4297 0.3776,-0.9538 0.4492,-1.5723 z m 14.6625,-3.6523 v 1.9433 H 88.3215 V 11.7188 Z M 88.927,5.78125 V 20 H 86.4758 V 5.78125 Z m 8.8281,0 V 20 H 95.3137 V 5.78125 Z M 106.988,7.67578 102.74,20 h -2.569 l 5.352,-14.21875 h 1.641 z M 110.543,20 106.285,7.67578 106.099,5.78125 h 1.651 L 113.121,20 Z m -0.205,-5.2734 v 1.9433 h -7.735 v -1.9433 z m 13.881,3.33 V 20 H 117.08 V 18.0566 Z M 117.764,5.78125 V 20 h -2.452 V 5.78125 Z m 16.43,10.55665 c 0,-0.293 -0.046,-0.5534 -0.137,-0.7813 -0.085,-0.2278 -0.238,-0.4362 -0.459,-0.625 -0.221,-0.1888 -0.534,-0.3711 -0.937,-0.5468 -0.398,-0.1823 -0.905,-0.3679 -1.524,-0.5567 -0.677,-0.2083 -1.302,-0.4394 -1.875,-0.6933 -0.566,-0.2605 -1.061,-0.5599 -1.484,-0.8985 -0.423,-0.345 -0.752,-0.7389 -0.987,-1.1816 -0.234,-0.4492 -0.351,-0.9668 -0.351,-1.55275 0,-0.57942 0.12,-1.10677 0.361,-1.58203 0.248,-0.47526 0.596,-0.88541 1.045,-1.23047 0.456,-0.35156 0.993,-0.62174 1.611,-0.81054 0.619,-0.19532 1.303,-0.29297 2.051,-0.29297 1.055,0 1.963,0.19531 2.725,0.58594 0.768,0.39062 1.357,0.91471 1.767,1.57226 0.417,0.65755 0.625,1.38346 0.625,2.17774 h -2.431 c 0,-0.46876 -0.101,-0.88217 -0.303,-1.24024 -0.195,-0.36458 -0.495,-0.65104 -0.898,-0.85937 -0.398,-0.20834 -0.902,-0.3125 -1.514,-0.3125 -0.58,0 -1.061,0.08789 -1.445,0.26367 -0.385,0.17578 -0.671,0.41341 -0.86,0.71289 -0.189,0.29948 -0.283,0.63802 -0.283,1.01562 0,0.26693 0.062,0.51105 0.186,0.73245 0.123,0.2148 0.312,0.4166 0.566,0.6054 0.254,0.1823 0.573,0.3549 0.957,0.5176 0.384,0.1628 0.837,0.319 1.357,0.4688 0.788,0.2343 1.475,0.4948 2.061,0.7812 0.586,0.28 1.074,0.599 1.465,0.9571 0.39,0.358 0.683,0.7649 0.879,1.2207 0.195,0.4492 0.293,0.9602 0.293,1.5332 0,0.5989 -0.121,1.1393 -0.362,1.6211 -0.241,0.4752 -0.586,0.8821 -1.035,1.2207 -0.443,0.332 -0.976,0.5891 -1.601,0.7714 -0.619,0.1758 -1.309,0.2637 -2.071,0.2637 -0.683,0 -1.357,-0.0911 -2.021,-0.2734 -0.658,-0.1823 -1.257,-0.459 -1.797,-0.8301 -0.54,-0.3776 -0.97,-0.8464 -1.289,-1.4063 C 126.16,17.1191 126,16.4583 126,15.7031 h 2.452 c 0,0.4623 0.078,0.8561 0.234,1.1817 0.163,0.3255 0.387,0.5924 0.674,0.8007 0.286,0.2019 0.618,0.3516 0.996,0.4493 0.384,0.0976 0.794,0.1464 1.23,0.1464 0.573,0 1.052,-0.0813 1.436,-0.2441 0.39,-0.1628 0.683,-0.3906 0.879,-0.6836 0.195,-0.293 0.293,-0.6315 0.293,-1.0156 z m 7.68,-10.55665 V 20 h -2.451 V 5.78125 Z m 8.545,0 -5.762,6.84575 -3.281,3.4765 -0.43,-2.4316 2.344,-2.8907 4.14,-4.99995 z M 147.782,20 143.104,13.2617 144.794,11.5918 150.692,20 Z M 155.277,5.78125 V 20 h -2.452 V 5.78125 Z m 4.34,0 h 0.83 l 5.625,13.08595 5.625,-13.08595 h 0.83 L 166.375,20 h -0.616 z m -0.244,0 h 0.742 l 0.049,7.60745 V 20 h -0.791 z m 12.675,0 h 0.743 V 20 H 172 V 13.3887 Z M 181.672,6.38672 176.613,20 h -0.84 l 5.342,-14.21875 h 0.655 z M 186.457,20 181.408,6.38672 181.311,5.78125 h 0.644 L 187.307,20 Z m -1.25,-4.873 v 0.7324 h -7.295 V 15.127 Z m 4.877,-9.34575 h 4.561 c 0.937,0 1.761,0.15951 2.471,0.47852 0.709,0.31901 1.263,0.7845 1.66,1.39648 0.403,0.61198 0.605,1.36393 0.605,2.25586 0,0.68359 -0.146,1.30209 -0.439,1.85549 -0.293,0.5534 -0.69,1.0123 -1.192,1.3769 -0.501,0.3581 -1.067,0.5925 -1.699,0.7032 l -0.342,0.1269 h -5.244 l -0.019,-0.7226 h 4.599 c 0.788,0 1.442,-0.1596 1.963,-0.4786 0.528,-0.319 0.921,-0.7324 1.182,-1.2402 0.267,-0.5143 0.4,-1.0547 0.4,-1.62109 0,-0.70964 -0.159,-1.3151 -0.478,-1.81641 -0.313,-0.50781 -0.765,-0.89843 -1.358,-1.17187 -0.586,-0.27995 -1.289,-0.41992 -2.109,-0.41992 h -3.77 V 20 h -0.791 z M 199.137,20 l -3.808,-6.3086 0.878,-0.0098 3.77,6.1817 V 20 Z m 13.569,-4.3848 h 0.791 c -0.098,0.9961 -0.365,1.836 -0.801,2.5196 -0.436,0.677 -1.022,1.1914 -1.758,1.5429 -0.729,0.3451 -1.588,0.5176 -2.578,0.5176 -0.788,0 -1.504,-0.1497 -2.148,-0.4492 -0.638,-0.306 -1.188,-0.7357 -1.651,-1.2891 -0.455,-0.5599 -0.807,-1.2272 -1.054,-2.0019 -0.248,-0.7748 -0.371,-1.6309 -0.371,-2.5684 v -1.9922 c 0,-0.944 0.123,-1.8001 0.371,-2.56833 0.247,-0.77474 0.599,-1.4388 1.054,-1.99219 0.463,-0.55989 1.016,-0.98958 1.66,-1.28906 0.652,-0.30599 1.377,-0.45898 2.178,-0.45898 0.97,0 1.82,0.17252 2.549,0.51758 0.729,0.34505 1.312,0.85937 1.748,1.54296 0.436,0.67709 0.703,1.51368 0.801,2.50972 h -0.791 c -0.098,-0.82677 -0.322,-1.52339 -0.674,-2.08979 -0.345,-0.57292 -0.82,-1.00912 -1.426,-1.3086 -0.605,-0.29948 -1.341,-0.44922 -2.207,-0.44922 -0.683,0 -1.299,0.13347 -1.845,0.40039 -0.547,0.26042 -1.016,0.63803 -1.407,1.13282 -0.39,0.48828 -0.693,1.07422 -0.908,1.75781 -0.208,0.67709 -0.312,1.43559 -0.312,2.27539 v 2.0117 c 0,0.8268 0.104,1.5853 0.312,2.2754 0.208,0.6836 0.505,1.2728 0.889,1.7676 0.384,0.4883 0.849,0.8691 1.396,1.1426 0.547,0.2669 1.159,0.4004 1.836,0.4004 0.866,0 1.605,-0.1368 2.217,-0.4102 0.612,-0.2799 1.094,-0.7064 1.445,-1.2793 0.358,-0.5729 0.586,-1.2956 0.684,-2.168 z m 5.668,-9.83395 V 20 h -0.791 V 5.78125 Z m 15.102,0 V 20 h -0.791 L 223.896,7.13867 V 20 h -0.801 V 5.78125 h 0.801 L 232.685,18.623 V 5.78125 Z"
       fill="#eeeeee"
       id="path4" />
  </g>
  <defs
     id="defs11">
    <clipPath
       id="clip0_67_2">
      <rect
         width="235"
         height="26"
         fill="white"
         id="rect8" />
    </clipPath>
  </defs>
</svg>

<svg width="235" height="26" viewBox="0 0 235 26" fill="none" xmlns="http://www.w3.org/2000/svg">
<g clip-path="url(#clip0_67_2)">
<path d="M2.69 13.95L-0.1 11.34L2.69 8.76V2.31L6.92 -0.270002H9.89L4.37 3.15V9.06L1.85 11.34L4.37 13.59V21.57L9.89 24.99H6.92L2.69 22.41V13.95ZM8.98438 3.75H12.4044L18.5844 9.57V14.1L12.7644 8.61V21H8.98438V3.75ZM29.6544 3.75H26.2644L20.0544 9.57V14.1L25.8744 8.61V21H29.6544V3.75ZM35.9745 22.41L31.6845 24.99H28.7445L34.2345 21.57V13.59L36.7845 11.34L34.2345 9.06V3.15L28.7445 -0.270002H31.6845L35.9745 2.31V8.76L38.7045 11.34L35.9745 13.95V22.41Z" fill="#00ADB5"/>
<path d="M49.4414 5.78125H51.6289L55.7402 16.748L59.8418 5.78125H62.0293L56.5996 20H54.8613L49.4414 5.78125ZM48.4453 5.78125H50.5254L50.8867 15.2734V20H48.4453V5.78125ZM60.9453 5.78125H63.0352V20H60.584V15.2734L60.9453 5.78125ZM69.1625 5.78125V20H66.7113V5.78125H69.1625ZM81.2078 15.3711H83.6492C83.5711 16.3021 83.3107 17.1322 82.868 17.8613C82.4253 18.584 81.8035 19.1536 81.0027 19.5703C80.202 19.987 79.2286 20.1953 78.0828 20.1953C77.2039 20.1953 76.4129 20.0391 75.7098 19.7266C75.0066 19.4076 74.4044 18.9583 73.9031 18.3789C73.4018 17.793 73.0177 17.0866 72.7508 16.2598C72.4904 15.4329 72.3602 14.5085 72.3602 13.4863V12.3047C72.3602 11.2826 72.4936 10.3581 72.7605 9.53125C73.034 8.70443 73.4246 7.99805 73.9324 7.41211C74.4402 6.81966 75.049 6.36719 75.7586 6.05469C76.4747 5.74219 77.2788 5.58594 78.1707 5.58594C79.3035 5.58594 80.2605 5.79427 81.0418 6.21094C81.823 6.6276 82.4285 7.20378 82.8582 7.93945C83.2944 8.67513 83.5613 9.51823 83.659 10.4688H81.2176C81.1525 9.85677 81.0092 9.33268 80.7879 8.89648C80.573 8.46029 80.254 8.12826 79.8309 7.90039C79.4077 7.66602 78.8543 7.54883 78.1707 7.54883C77.6108 7.54883 77.1225 7.65299 76.7059 7.86133C76.2892 8.06966 75.9409 8.37565 75.6609 8.7793C75.381 9.18294 75.1694 9.68099 75.0262 10.2734C74.8895 10.8594 74.8211 11.5299 74.8211 12.2852V13.4863C74.8211 14.2025 74.8829 14.8535 75.0066 15.4395C75.1368 16.0189 75.3322 16.5169 75.5926 16.9336C75.8595 17.3503 76.198 17.6725 76.6082 17.9004C77.0184 18.1283 77.5099 18.2422 78.0828 18.2422C78.7794 18.2422 79.3426 18.1315 79.7723 17.9102C80.2085 17.6888 80.5372 17.3665 80.7586 16.9434C80.9865 16.5137 81.1362 15.9896 81.2078 15.3711ZM95.8703 11.7188V13.6621H88.3215V11.7188H95.8703ZM88.927 5.78125V20H86.4758V5.78125H88.927ZM97.7551 5.78125V20H95.3137V5.78125H97.7551ZM106.988 7.67578L102.74 20H100.171L105.523 5.78125H107.164L106.988 7.67578ZM110.543 20L106.285 7.67578L106.099 5.78125H107.75L113.121 20H110.543ZM110.338 14.7266V16.6699H102.603V14.7266H110.338ZM124.219 18.0566V20H117.08V18.0566H124.219ZM117.764 5.78125V20H115.312V5.78125H117.764ZM134.194 16.3379C134.194 16.0449 134.148 15.7845 134.057 15.5566C133.972 15.3288 133.819 15.1204 133.598 14.9316C133.377 14.7428 133.064 14.5605 132.661 14.3848C132.263 14.2025 131.756 14.0169 131.137 13.8281C130.46 13.6198 129.835 13.3887 129.262 13.1348C128.696 12.8743 128.201 12.5749 127.778 12.2363C127.355 11.8913 127.026 11.4974 126.791 11.0547C126.557 10.6055 126.44 10.0879 126.44 9.50195C126.44 8.92253 126.56 8.39518 126.801 7.91992C127.049 7.44466 127.397 7.03451 127.846 6.68945C128.302 6.33789 128.839 6.06771 129.457 5.87891C130.076 5.68359 130.76 5.58594 131.508 5.58594C132.563 5.58594 133.471 5.78125 134.233 6.17188C135.001 6.5625 135.59 7.08659 136 7.74414C136.417 8.40169 136.625 9.1276 136.625 9.92188H134.194C134.194 9.45312 134.093 9.03971 133.891 8.68164C133.696 8.31706 133.396 8.0306 132.993 7.82227C132.595 7.61393 132.091 7.50977 131.479 7.50977C130.899 7.50977 130.418 7.59766 130.034 7.77344C129.649 7.94922 129.363 8.18685 129.174 8.48633C128.985 8.78581 128.891 9.12435 128.891 9.50195C128.891 9.76888 128.953 10.013 129.077 10.2344C129.2 10.4492 129.389 10.651 129.643 10.8398C129.897 11.0221 130.216 11.1947 130.6 11.3574C130.984 11.5202 131.437 11.6764 131.957 11.8262C132.745 12.0605 133.432 12.321 134.018 12.6074C134.604 12.8874 135.092 13.2064 135.483 13.5645C135.873 13.9225 136.166 14.3294 136.362 14.7852C136.557 15.2344 136.655 15.7454 136.655 16.3184C136.655 16.9173 136.534 17.4577 136.293 17.9395C136.052 18.4147 135.707 18.8216 135.258 19.1602C134.815 19.4922 134.282 19.7493 133.657 19.9316C133.038 20.1074 132.348 20.1953 131.586 20.1953C130.903 20.1953 130.229 20.1042 129.565 19.9219C128.907 19.7396 128.308 19.4629 127.768 19.0918C127.228 18.7142 126.798 18.2454 126.479 17.6855C126.16 17.1191 126 16.4583 126 15.7031H128.452C128.452 16.1654 128.53 16.5592 128.686 16.8848C128.849 17.2103 129.073 17.4772 129.36 17.6855C129.646 17.8874 129.978 18.0371 130.356 18.1348C130.74 18.2324 131.15 18.2812 131.586 18.2812C132.159 18.2812 132.638 18.1999 133.022 18.0371C133.412 17.8743 133.705 17.6465 133.901 17.3535C134.096 17.0605 134.194 16.722 134.194 16.3379ZM141.874 5.78125V20H139.423V5.78125H141.874ZM150.419 5.78125L144.657 12.627L141.376 16.1035L140.946 13.6719L143.29 10.7812L147.43 5.78125H150.419ZM147.782 20L143.104 13.2617L144.794 11.5918L150.692 20H147.782ZM155.277 5.78125V20H152.825V5.78125H155.277ZM159.617 5.78125H160.447L166.072 18.8672L171.697 5.78125H172.527L166.375 20H165.759L159.617 5.78125ZM159.373 5.78125H160.115L160.164 13.3887V20H159.373V5.78125ZM172.048 5.78125H172.791V20H172V13.3887L172.048 5.78125ZM181.672 6.38672L176.613 20H175.773L181.115 5.78125H181.77L181.672 6.38672ZM186.457 20L181.408 6.38672L181.311 5.78125H181.955L187.307 20H186.457ZM185.207 15.127V15.8594H177.912V15.127H185.207ZM190.084 5.78125H194.645C195.582 5.78125 196.406 5.94076 197.116 6.25977C197.825 6.57878 198.379 7.04427 198.776 7.65625C199.179 8.26823 199.381 9.02018 199.381 9.91211C199.381 10.5957 199.235 11.2142 198.942 11.7676C198.649 12.321 198.252 12.7799 197.75 13.1445C197.249 13.5026 196.683 13.737 196.051 13.8477L195.709 13.9746H190.465L190.446 13.252H195.045C195.833 13.252 196.487 13.0924 197.008 12.7734C197.536 12.4544 197.929 12.041 198.19 11.5332C198.457 11.0189 198.59 10.4785 198.59 9.91211C198.59 9.20247 198.431 8.59701 198.112 8.0957C197.799 7.58789 197.347 7.19727 196.754 6.92383C196.168 6.64388 195.465 6.50391 194.645 6.50391H190.875V20H190.084V5.78125ZM199.137 20L195.329 13.6914L196.207 13.6816L199.977 19.8633V20H199.137ZM212.706 15.6152H213.497C213.399 16.6113 213.132 17.4512 212.696 18.1348C212.26 18.8118 211.674 19.3262 210.938 19.6777C210.209 20.0228 209.35 20.1953 208.36 20.1953C207.572 20.1953 206.856 20.0456 206.212 19.7461C205.574 19.4401 205.024 19.0104 204.561 18.457C204.106 17.8971 203.754 17.2298 203.507 16.4551C203.259 15.6803 203.136 14.8242 203.136 13.8867V11.8945C203.136 10.9505 203.259 10.0944 203.507 9.32617C203.754 8.55143 204.106 7.88737 204.561 7.33398C205.024 6.77409 205.577 6.3444 206.221 6.04492C206.873 5.73893 207.598 5.58594 208.399 5.58594C209.369 5.58594 210.219 5.75846 210.948 6.10352C211.677 6.44857 212.26 6.96289 212.696 7.64648C213.132 8.32357 213.399 9.16016 213.497 10.1562H212.706C212.608 9.32943 212.384 8.63281 212.032 8.06641C211.687 7.49349 211.212 7.05729 210.606 6.75781C210.001 6.45833 209.265 6.30859 208.399 6.30859C207.716 6.30859 207.1 6.44206 206.554 6.70898C206.007 6.9694 205.538 7.34701 205.147 7.8418C204.757 8.33008 204.454 8.91602 204.239 9.59961C204.031 10.2767 203.927 11.0352 203.927 11.875V13.8867C203.927 14.7135 204.031 15.472 204.239 16.1621C204.447 16.8457 204.744 17.4349 205.128 17.9297C205.512 18.418 205.977 18.7988 206.524 19.0723C207.071 19.3392 207.683 19.4727 208.36 19.4727C209.226 19.4727 209.965 19.3359 210.577 19.0625C211.189 18.7826 211.671 18.3561 212.022 17.7832C212.38 17.2103 212.608 16.4876 212.706 15.6152ZM218.374 5.78125V20H217.583V5.78125H218.374ZM233.476 5.78125V20H232.685L223.896 7.13867V20H223.095V5.78125H223.896L232.685 18.623V5.78125H233.476Z" fill="#EEEEEE"/>
</g>
<defs>
<clipPath id="clip0_67_2">
<rect width="235" height="26" fill="white"/>
</clipPath>
</defs>
</svg>
